X:035
T:I’ll be Marri’d on Tuesday TS.035
T:Greensleeves?aka TS.035
M:6/8
L:1/8
Q:3/8=110
S:Thomas Sands’ MS,1810,Lincolnshire
C:Prefixed as ‘No.23′ in MS
R:jig
O:England;Lincolnshire
Z:vmp.Ruairidh Greig, 2011
K:Gm
G2AB2G|A3F3|G2G[G2g2]a|f3d3|f2f fed|cBAF2F|G2AB2G|A3G3:|
|:g2dg2d|B3G3|g2dg2a|f3d3|f2f fed|cBAF2F|G2AB2G|A3G3:|]

